X:20
T:Lewden Hill Hornpipe,aka. JBu.20
O:England,South Yorkshire
S:Joshua Burnett’s MS,c1835,S.Yorkshire
M:C
L:1/8
Q:1/2=80
C:unnamed in MS, named by Paul Davenport
N:What have been marked as trills are really
N:just generic decorations in the MS.
R:.hornpipe
Z:vmp.R.Greig.2010
K:F
cB|AFTF2AF!trill!F2|Ac!trill!c2Ac!trill!c2|\
dB!trill!B2dB!trill!B2|ec!trill!c2 bgec|
AF!trill!F2AF!trill!F2|Ac!trill!c2Ac !trill!c2|d>Bf>d e>fg>e|f2a2f2:|
|:fg|a>gf>g f>ga>f|g>fe>f e>fg>e|f>ed>e d>ef>e|e>fge c2c2|
d>cb>a g>fe>d|c>Aa>g f>ed>c|d>ef>d e>fg>e|f2a2f2:|

